X:2
T:2 Francs Worth
O:england
R:Reel
N:July 94
M:4/4
C:Andy Hornby
A:Lancaster
K:D
Ac|\
e2ef ecAB|cAaf e2AB|c2ef ecAc|dcBA B2AB|\
ceef ecAB|cAaf e2AB|
c2ef ecAB|c2A2A2 :|\
|:e2 |\
fdAf dAaf|ecAc eAce|
fdAf dAaf|ecAc B2AB|\
ceef ecAB|cAaf e2AB|ceef ecAB|c2A2A2:|
W:Copyright (C) Andy Hornby


